assets/images/bg_repeat.svg

<svg xmlns="http://www.w3.org/2000/svg" width="1920" height="1658" fill="none"><path stroke="#034940" d="M340.591 1462.91 224.501 1579l-116.09-116.09 116.09-116.09 116.09 116.09Z"/><path stroke="#034940" d="m395.86 1462.84-55.481 55.48-55.48-55.48 55.48-55.48 55.481 55.48ZM279.911 1291.48l-55.481 55.48-55.48-55.48 55.48-55.48 55.481 55.48ZM163.962 1462.84l-55.481 55.48-55.48-55.48 55.48-55.48 55.481 55.48ZM1829.73 871.911l-116.09 116.09-116.09-116.09 116.09-116.09 116.09 116.09Z"/><path stroke="#034940" d="m1885 871.839-55.48 55.48-55.48-55.48 55.48-55.481 55.48 55.481ZM1769.05 700.481l-55.48 55.48-55.48-55.48L1713.57 645l55.48 55.481ZM1653.1 871.839l-55.48 55.48-55.48-55.48 55.48-55.481 55.48 55.481Z"/></svg>

<svg width="1920" height="1658" viewBox="0 0 1920 1658" fill="none" xmlns="http://www.w3.org/2000/svg">
<path d="M340.591 1462.91L224.501 1579L108.411 1462.91L224.501 1346.82L340.591 1462.91Z" stroke="#034940"/>
<path d="M395.86 1462.84L340.379 1518.32L284.899 1462.84L340.379 1407.36L395.86 1462.84Z" stroke="#034940"/>
<path d="M279.911 1291.48L224.43 1346.96L168.95 1291.48L224.43 1236L279.911 1291.48Z" stroke="#034940"/>
<path d="M163.962 1462.84L108.481 1518.32L53.001 1462.84L108.481 1407.36L163.962 1462.84Z" stroke="#034940"/>
<path d="M1829.73 871.911L1713.64 988.001L1597.55 871.911L1713.64 755.821L1829.73 871.911Z" stroke="#034940"/>
<path d="M1885 871.839L1829.52 927.319L1774.04 871.839L1829.52 816.358L1885 871.839Z" stroke="#034940"/>
<path d="M1769.05 700.481L1713.57 755.961L1658.09 700.481L1713.57 645L1769.05 700.481Z" stroke="#034940"/>
<path d="M1653.1 871.839L1597.62 927.319L1542.14 871.839L1597.62 816.358L1653.1 871.839Z" stroke="#034940"/>
</svg>
